icon-themes/sifr_svg/cmd/sc_dataconsolidate.svg

<svg viewBox="0 0 16 16" xmlns="http://www.w3.org/2000/svg"><path d="m3 1c-.554 0-1 .446-1 1v12c0 .554.446 1 1 1h4c.554 0 1-.446 1-1v-12c0-.554-.446-1-1-1zm7 0v2h2v10h-2v2h4v-14zm-6 2h2v2h-2zm0 4h2v2h-2zm0 4h.0410156 1.9179688.0410156v2h-2z" fill="#555753"/></svg>

<svg xmlns="http://www.w3.org/2000/svg" viewBox="0 0 16 16">
  <path
     style="fill:#555753"
     d="M 3,1 C 2.446,1 2,1.446 2,2 v 12 c 0,0.554 0.446,1 1,1 h 4 c 0.554,0 1,-0.446 1,-1 V 2 C 8,1.446 7.554,1 7,1 Z m 7,0 v 2 h 2 v 10 h -2 v 2 h 4 V 1 Z M 4,3 H 6 V 5 H 4 Z M 4,7 H 6 V 9 H 4 Z m 0,4 H 4.0410156 5.9589844 6 v 2 H 4 Z"
     />
</svg>
